_includes/icons/ios-jsp.svg

<svg fill="#666" height="50" viewBox="0 0 50 50" width="50" xmlns="http://www.w3.org/2000/svg"><path d="m5.953125 4c-.511719 0-1.03125.1875-1.398437.554688-.367188.367187-.554688.886718-.554688 1.398437v38.09375c0 .507813.1875 1.03125.554688 1.398438.367187.367187.886718.554687 1.398437.554687h38.09375c.507813 0 1.03125-.1875 1.398438-.554687.367187-.367188.554687-.886719.554687-1.398438v-38.09375c0-.511719-.1875-1.03125-.554687-1.398437-.367188-.367188-.886719-.554688-1.398438-.554688zm.046875 2h38v38h-38zm18.511719 13.800781c-2.113281 0-3.195313 1.351563-3.195313 2.96875 0 .917969.527344 1.980469 1.90625 2.824219.855469.550781 1.304688.914063 1.304688 1.644531 0 .664063-.449219 1.140625-1.382813 1.140625-.566406 0-1.257812-.164062-1.660156-.390625l-.285156 1.699219c.328125.191406 1.121094.402344 1.933594.402344 1.980468 0 3.347656-1.214844 3.347656-3.058594 0-1.066406-.496094-2.085937-1.832031-2.894531-1.09375-.660156-1.394532-.976563-1.394532-1.574219 0-.542969.402344-1.050781 1.242188-1.050781.570312 0 1.007812.164062 1.289062.34375l.316407-1.695313c-.300782-.179687-.929688-.359375-1.589844-.359375zm5.160156.042969c-.75 0-1.5.078125-2.054687.199219v9.957031h1.964843v-3.765625h.390625c.808594 0 1.832032-.300781 2.460938-.957031.523437-.574219.851562-1.335938.851562-2.433594 0-.855469-.265625-1.691406-.867187-2.21875-.660156-.613281-1.574219-.78125-2.746094-.78125zm-11.546875.046875v6.976563c0 1.304687-.484375 1.527343-1.050781 1.527343-.257813 0-.453125-.011718-.648438-.070312l-.164062 1.648437c.222656.089844.585937.148438.988281.148438 1.441406 0 2.851563-.4375 2.851563-3.34375v-6.886719zm11.9375 1.546875c.914063 0 1.277344.6875 1.277344 1.574219 0 .945312-.453125 1.648437-1.445313 1.648437-.117187 0-.222656 0-.3125-.03125v-3.117187c.121094-.046875.300782-.074219.480469-.074219z"/></svg>

<svg xmlns="http://www.w3.org/2000/svg" viewBox="0 0 50 50" width="50" height="50" fill="#666"><path d="M 5.953125 4 C 5.441406 4 4.921875 4.1875 4.554688 4.554688 C 4.1875 4.921875 4 5.441406 4 5.953125 L 4 44.046875 C 4 44.554688 4.1875 45.078125 4.554688 45.445313 C 4.921875 45.8125 5.441406 46 5.953125 46 L 44.046875 46 C 44.554688 46 45.078125 45.8125 45.445313 45.445313 C 45.8125 45.078125 46 44.558594 46 44.046875 L 46 5.953125 C 46 5.441406 45.8125 4.921875 45.445313 4.554688 C 45.078125 4.1875 44.558594 4 44.046875 4 Z M 6 6 L 44 6 L 44 44 L 6 44 Z M 24.511719 19.800781 C 22.398438 19.800781 21.316406 21.152344 21.316406 22.769531 C 21.316406 23.6875 21.84375 24.75 23.222656 25.59375 C 24.078125 26.144531 24.527344 26.507813 24.527344 27.238281 C 24.527344 27.902344 24.078125 28.378906 23.144531 28.378906 C 22.578125 28.378906 21.886719 28.214844 21.484375 27.988281 L 21.199219 29.6875 C 21.527344 29.878906 22.320313 30.089844 23.132813 30.089844 C 25.113281 30.089844 26.480469 28.875 26.480469 27.03125 C 26.480469 25.964844 25.984375 24.945313 24.648438 24.136719 C 23.554688 23.476563 23.253906 23.160156 23.253906 22.5625 C 23.253906 22.019531 23.65625 21.511719 24.496094 21.511719 C 25.066406 21.511719 25.503906 21.675781 25.785156 21.855469 L 26.101563 20.160156 C 25.800781 19.980469 25.171875 19.800781 24.511719 19.800781 Z M 29.671875 19.84375 C 28.921875 19.84375 28.171875 19.921875 27.617188 20.042969 L 27.617188 30 L 29.582031 30 L 29.582031 26.234375 L 29.972656 26.234375 C 30.78125 26.234375 31.804688 25.933594 32.433594 25.277344 C 32.957031 24.703125 33.285156 23.941406 33.285156 22.84375 C 33.285156 21.988281 33.019531 21.152344 32.417969 20.625 C 31.757813 20.011719 30.84375 19.84375 29.671875 19.84375 Z M 18.125 19.890625 L 18.125 26.867188 C 18.125 28.171875 17.640625 28.394531 17.074219 28.394531 C 16.816406 28.394531 16.621094 28.382813 16.425781 28.324219 L 16.261719 29.972656 C 16.484375 30.0625 16.847656 30.121094 17.25 30.121094 C 18.691406 30.121094 20.101563 29.683594 20.101563 26.777344 L 20.101563 19.890625 Z M 30.0625 21.4375 C 30.976563 21.4375 31.339844 22.125 31.339844 23.011719 C 31.339844 23.957031 30.886719 24.660156 29.894531 24.660156 C 29.777344 24.660156 29.671875 24.660156 29.582031 24.628906 L 29.582031 21.511719 C 29.703125 21.464844 29.882813 21.4375 30.0625 21.4375 Z"/></svg>
